phone-voip.svg

<svg fill="currentColor" viewBox="0 0 24 24"><path d="M13 17v2h1a1 1 0 0 1 1 1h7v2h-7a1 1 0 0 1-1 1h-4a1 1 0 0 1-1-1H2v-2h7a1 1 0 0 1 1-1h1v-2zm10.7-9.33c.18.18.3.42.3.7s-.11.53-.29.71l-2.48 2.48c-.18.18-.43.29-.73.29-.25 0-.5-.1-.68-.28-.82-.73-1.69-1.36-2.67-1.85-.33-.16-.56-.51-.56-.9v-3.1C15.14 5.25 13.59 5 12 5c-1.6 0-3.15.25-4.6.73v3.1c0 .4-.23.74-.56.9-.97.49-1.87 1.11-2.66 1.85a1.015 1.015 0 0 1-1.41-.01L.29 9.09A1 1 0 0 1 0 8.38c0-.28.11-.53.29-.71C3.34 4.78 7.46 3 12 3c4.53 0 8.65 1.78 11.7 4.67M11 10v5h-1v-5zm1 0h3v3h-2v2h-1zm2 2v-1h-1v1z"/></svg>

<svg  viewBox="0 0 24 24" fill="currentColor"><path  d="M13,17V19H14A1,1 0 0,1 15,20H22V22H15A1,1 0 0,1 14,23H10A1,1 0 0,1 9,22H2V20H9A1,1 0 0,1 10,19H11V17H13M23.7,7.67C23.88,7.85 24,8.09 24,8.37C24,8.65 23.89,8.9 23.71,9.08L21.23,11.56C21.05,11.74 20.8,11.85 20.5,11.85C20.25,11.85 20,11.75 19.82,11.57C19,10.84 18.13,10.21 17.15,9.72C16.82,9.56 16.59,9.21 16.59,8.82V5.72C15.14,5.25 13.59,5 12,5C10.4,5 8.85,5.25 7.4,5.73V8.83C7.4,9.23 7.17,9.57 6.84,9.73C5.87,10.22 4.97,10.84 4.18,11.58C4,11.75 3.75,11.86 3.5,11.86C3.2,11.86 2.95,11.75 2.77,11.57L0.29,9.09C0.11,8.91 0,8.66 0,8.38C0,8.1 0.11,7.85 0.29,7.67C3.34,4.78 7.46,3 12,3C16.53,3 20.65,4.78 23.7,7.67M11,10V15H10V10H11M12,10H15V13H13V15H12V10M14,12V11H13V12H14Z"/></svg>
